X:1
T:The Shepherd’s Fold
T:The Shepherd’s Fold
T:I. T. Davis
T:John Michael Bowman, 1904
T:Public Domain Courtesy of the Cyber Hymnal™
T:Public Domain Courtesy of the Cyber Hymnal™
C:I. T. Davis
Z:Public Domain
Z:Courtesy of the Cyber Hymnal™
%%score ( 1 2 ) ( 3 4 )
L:1/8
Q:1/4=88
M:3/4
K:F
V:1 treble 
V:2 treble 
V:3 bass 
V:4 bass 
V:1
 AA B | c3 (A/A/) FG | A3 A BA | G3 (B/B/) A^G | A3 F FG | A3 (c/c/) BA | d3 d cF | B (A/A/) A3 G | %8
w: 1.~Far, far a-|way from~the * Shep- herd’s|care, Out on the|moun- tains * cold and|bare, There one had|strayed from~the * shel- tering|fold, And wan- dered|far from~the * gates of|
w: 2.~The Shep- herd|said, “Though~the * way is|steep, I go to|res- cue * My lost|sheep”; Out on the|des- ert * far a-|way, He hast- ens|while ’tis * yet to-|
w: 3.~The Shep- herd|found the * lamb once|lost, That o’er the|bar- ren * hills had|crossed; He took it|in His * ten- der|arms, And shel- tered|it from * des- ert|
w: 4.~A sin- ner|out in~the * des- ert|cold, Was wan- dering|far from~the * Shep- herd’s|fold; Through chill- ing|winds of * sin’s long|night, Re- deemed at|last by * Gos- pel|
 F3 ||"^Refrain" [Fc][Fc] [FA] | [Fc]3 [FA]/[FA]/ F[FB] | [FA]3 [FA] [FG][^FA] | %12
w: gold.||||
w: day.||||
w: storms.|There ma- ny|lay in the Shep- herd’s|fold, While one was|
w: light.||||
 [GB]3 G/G/ [FA][F=B] | [Ec]3 [Fc] [FA][FB] | [Fc] [Fc]2 [FA] [EG]F | [Fd]3 [Ff] [Fe][Fd] | %16
w: ||||
w: ||||
w: far from the gates of|gold; Out on the|des- ert, through sin’s dark|night, Wan- dered a-|
w: ||||
 [Fc]F/[FB]/ [FA]3 [DG] | F3 |] %18
w: ||
w: ||
w: far till the morn- ing|light.|
w: ||
V:2
 x3 | x6 | x6 | x6 | x6 | x6 | x6 | x6 | x3 || x3 | x4 F x | x6 | x3 G/G/ x2 | x6 | x5 F | x6 | %16
 x F/ x9/2 | F3 |] %18
V:3
 F,F, G, | [F,,F,A,]3 (C/C/) A,B, | [F,,F,C]3 C [E,D][F,C] | [C,,C,B,]3 (D/D/) C=B, | %4
 [F,,F,C]3 A, A,B, | [F,,F,C]3 (A,/A,/) G,F, | [B,,B,]3 B, [F,A,][_E,A,] | %7
 [B,,D,F,D] (C/C/) [C,C]3 [C,B,] | [F,,F,A,]3 || [F,A,][F,A,] [F,C] | %10
 [F,A,]3 [F,C]/[F,C]/ [F,A,][E,D] | [F,C]3 [A,C] [B,D][A,D] | [G,D]3 [E,E]/[E,E]/ [F,C][D,G,] | %13
 [C,G,]3 [F,A,] [F,C][F,G,] | [F,A,] [F,A,]2 [F,C] [C,B,][D,A,] | %15
 [B,,B,]3 [=B,,^G,] [B,,G,][B,,G,] | [C,A,][C,A,]/[C,D]/ [C,C]3 [C,B,] | [F,A,]3 |] %18
V:4
 x3 | x4 F,2 | x6 | x4 F,2 | x6 | x3 A,, B,,2 | x6 | x6 | x3 || x3 | x6 | x6 | x6 | x6 | x6 | x6 | %16
 x6 | x3 |] %18

